www/assets/icons/video_stable.svg

<svg xmlns="http://www.w3.org/2000/svg" width="24" height="24" viewBox="0 0 24 24" fill='currentColor'><path d="M20 4H4c-1.1 0-2 .9-2 2v12c0 1.1.9 2 2 2h16c1.1 0 2-.9 2-2V6c0-1.1-.9-2-2-2M4 18V6h2.95l-2.33 8.73L16.82 18zm16 0h-2.95l2.34-8.73L7.18 6H20z"/></svg>

<svg width="24" height="24" viewBox="0 0 24 24" xmlns="http://www.w3.org/2000/svg" fill='currentColor'><path d="M20 4H4C2.9 4 2 4.9 2 6V18C2 19.1 2.9 20 4 20H20C21.1 20 22 19.1 22 18V6C22 4.9 21.1 4 20 4ZM4 18V6H6.95L4.62 14.73L16.82 18H4ZM20 18H17.05L19.39 9.27L7.18 6H20V18Z"/></svg>
